assets/images/ico_vk.svg

<svg width="25" height="15" viewBox="0 0 25 15" fill="none" xmlns="http://www.w3.org/2000/svg">
<path fill-rule="evenodd" clip-rule="evenodd" d="M21.5155 9.53701C22.3438 10.3949 23.2202 11.2023 23.9639 12.1488C24.2933 12.5676 24.6039 13.0006 24.8403 13.4875C25.1777 14.1819 24.873 14.9434 24.2868 14.9847L20.6456 14.9839C19.7052 15.0664 18.9568 14.6643 18.3259 13.9826C17.8223 13.4393 17.355 12.8591 16.8699 12.2973C16.6717 12.0667 16.463 11.8496 16.2142 11.6788C15.7179 11.3364 15.2866 11.4413 15.0022 11.9911C14.7124 12.5506 14.6462 13.1706 14.6186 13.7933C14.5789 14.7036 14.32 14.9415 13.4585 14.9843C11.6178 15.0757 9.87118 14.7796 8.24786 13.7956C6.81583 12.9277 5.70744 11.7027 4.7416 10.3159C2.86083 7.61225 1.42043 4.64493 0.126214 1.59239C-0.165065 0.904926 0.0480306 0.537095 0.763321 0.522829C1.95171 0.498538 3.14011 0.501623 4.3285 0.521672C4.81215 0.529769 5.13215 0.823186 5.31798 1.30707C5.96017 2.98236 6.74746 4.5763 7.73403 6.05456C7.99695 6.44823 8.26532 6.84073 8.64751 7.11873C9.06934 7.42564 9.3908 7.32423 9.58971 6.82493C9.71699 6.5076 9.7719 6.1683 9.79954 5.82823C9.89409 4.66344 9.90536 3.49902 9.74172 2.33885C9.6399 1.61283 9.2548 1.14398 8.57224 1.00672C8.22459 0.936928 8.2755 0.800438 8.4446 0.589918C8.73806 0.225942 9.01297 0.000771134 9.56244 0.000771134L13.6764 0C14.3247 0.134949 14.4702 0.443402 14.5582 1.13588L14.5618 5.98323C14.5542 6.2512 14.6887 7.04547 15.1426 7.2209C15.5062 7.34814 15.7462 7.03892 15.9637 6.79485C16.9503 5.6848 17.6532 4.37465 18.2826 3.01861C18.5605 2.42059 18.8001 1.80176 19.0329 1.18176C19.2059 0.723324 19.475 0.497767 19.9631 0.505479L23.9246 0.510491C24.0413 0.510491 24.1599 0.511648 24.2755 0.532854C24.9432 0.653922 25.1261 0.95852 24.9195 1.64907C24.5944 2.73406 23.9628 3.63783 23.3453 4.54391C22.6835 5.514 21.9776 6.45015 21.3224 7.42448C20.7202 8.31514 20.7678 8.76356 21.5155 9.53701Z" fill="white"/>
</svg>

<svg width="25" height="15" fill="none" xmlns="http://www.w3.org/2000/svg"><path fill-rule="evenodd" clip-rule="evenodd" d="M21.515 9.537c.829.858 1.705 1.665 2.449 2.612.33.419.64.852.876 1.339.338.694.033 1.455-.553 1.497l-3.641-.001c-.94.082-1.69-.32-2.32-1.001-.504-.544-.971-1.124-1.456-1.686a3.477 3.477 0 0 0-.656-.618c-.496-.343-.927-.238-1.212.312-.29.56-.356 1.18-.383 1.802-.04.91-.299 1.149-1.16 1.191-1.841.092-3.588-.204-5.211-1.188-1.432-.868-2.54-2.093-3.506-3.48C2.86 7.612 1.42 4.645.126 1.592-.165.905.048.537.763.522a95.562 95.562 0 0 1 3.566 0c.483.008.803.301.989.785.642 1.675 1.43 3.27 2.416 4.748.263.393.531.786.914 1.064.421.307.743.205.942-.294.127-.317.182-.657.21-.997.094-1.165.105-2.329-.058-3.49-.102-.725-.487-1.194-1.17-1.331C8.225.937 8.276.8 8.445.59 8.738.226 9.013 0 9.562 0h4.114c.649.135.794.443.882 1.136l.004 4.847c-.008.268.127 1.062.58 1.238.364.127.604-.182.822-.426.986-1.11 1.69-2.42 2.319-3.776.277-.598.517-1.217.75-1.837.173-.459.442-.684.93-.677l3.962.005c.116 0 .235.002.35.023.668.12.851.426.645 1.116-.326 1.085-.957 1.989-1.575 2.895-.662.97-1.367 1.906-2.023 2.88-.602.891-.554 1.34.194 2.113z" fill="#fff"/></svg>
